mobile/apps/auth/assets/custom-icons/icons/federal_student_aid.svg

<svg xmlns="http://www.w3.org/2000/svg" width="100" height="100" viewBox="0 0 100 100">
  <g fill="none" fill-rule="evenodd" style="mix-blend-mode:difference">
    <path fill="#FFF" fill-rule="nonzero" d="M36.541161,74.0690484 C35.855467,73.4387909 35.005077,72.8628939 33.908182,72.8628939 C31.879625,72.8628939 30.727831,74.5076989 30.727831,77.5238924 C30.727831,80.5400858 31.879625,82.1870437 33.908182,82.1870437 C35.362456,82.1870437 35.828556,81.4744384 36.541161,80.9238378 L36.541161,74.0690484 Z M39.941645,84.6531747 L37.063236,84.6531747 L36.898002,83.1192434 C35.69131,84.2968721 34.566965,84.9271295 33.030342,84.9271295 C29.246645,84.9271295 27.327347,81.5826209 27.327347,77.1401404 C27.327347,73.6314743 29.356442,70.1206552 33.030342,70.1206552 C34.182675,70.1206552 35.801107,70.8063494 36.486263,71.7110998 L36.541161,71.7110998 L36.541161,64.8557722 L39.941645,64.8557722 L39.941645,84.6531747 Z M20.801411,84.6531747 L24.200818,84.6531747 L24.200818,70.39461 L20.801411,70.39461 L20.801411,84.6531747 Z M20.801411,67.7627067 L24.200818,67.7627067 L24.200818,64.5818175 L20.801411,64.5818175 L20.801411,67.7627067 Z M8.049328,77.2499376 L12.657043,77.2499376 L10.435264,68.6394696 L10.380366,68.6394696 L8.049328,77.2499376 Z M7.995506,64.8283229 L12.711941,64.8283229 L18.332589,84.6531747 L14.575264,84.6531747 L13.478907,80.3759282 L7.226388,80.3759282 L6.048221,84.6531747 L2.290896,84.6531747 L7.995506,64.8283229 Z"/>
    <path fill="#FFF" fill-rule="nonzero" d="M91.03487 45.3945023L91.03487 40.6780671 94.434277 40.6780671 94.434277 45.3945023 97.231952 45.3945023 97.231952 48.1362028 94.434277 48.1362028 94.434277 56.1971466C94.434277 56.9668034 94.819105 57.1863978 95.668419 57.1863978 96.189956 57.1863978 96.738403 57.021702 97.231952 56.9102902L97.231952 59.7085039C96.299215 59.8193775 95.47735 59.9275601 94.544612 59.9275601 92.021968 59.9275601 91.03487 58.6670452 91.03487 56.6363354L91.03487 48.1362028 89.060135 48.1362028 89.060135 45.3945023 91.03487 45.3945023zM74.909753 59.6536053L74.909753 45.3945023 78.03682 45.3945023 78.03682 46.9305866C79.297335 46.0532855 80.750533 45.1205476 82.423325 45.1205476 85.275361 45.1205476 86.645673 46.9844087 86.645673 49.8913432L86.645673 59.6536053 83.246266 59.6536053 83.246266 50.3854306C83.246266 48.4661326 82.642381 47.862248 81.490587 47.862248 80.009402 47.862248 78.885595 48.7126381 78.310236 49.370883L78.310236 59.6536053 74.909753 59.6536053zM68.795018 50.7697207C68.739043 48.794986 67.698122 47.6431919 66.052779 47.6431919 64.406898 47.6431919 63.364363 48.794986 63.309464 50.7697207L68.795018 50.7697207zM63.309464 53.0727707C63.364363 56.0335273 64.681391 57.1863978 66.272374 57.1863978 67.86228 57.1863978 68.601796 56.4737925 69.451648 55.4845413L71.919932 57.021702C70.603442 59.0518736 68.684144 59.9275601 65.941906 59.9275601 62.240556 59.9275601 59.910595 57.0480749 59.910595 52.5243229 59.910595 47.9994945 62.240556 45.1205476 66.106601 45.1205476 69.836477 45.0925601 71.919932 48.246 71.919932 51.6744711L71.919932 53.0727707 63.309464 53.0727707zM53.76572 49.0689407C53.080564 48.4386833 52.23125 47.862248 51.133278 47.862248 49.104183 47.862248 47.954004 49.5086677 47.954004 52.5243229 47.954004 55.5405164 49.104183 57.1863978 51.133278 57.1863978 52.585938 57.1863978 53.052576 56.4737925 53.76572 55.9231919L53.76572 49.0689407zM57.166204 59.6536053L54.287257 59.6536053 54.122023 58.1196739C52.916406 59.2973027 51.792062 59.9275601 50.254363 59.9275601 46.470665 59.9275601 44.551906 56.581975 44.551906 52.1400328 44.551906 48.6313666 46.582077 45.1205476 50.254363 45.1205476 51.407233 45.1205476 53.025127 45.8062418 53.71136 46.710454L53.76572 46.710454 53.76572 39.8556646 57.166204 39.8556646 57.166204 59.6536053zM41.809129 45.3945023L41.809129 59.6536053 38.683138 59.6536053 38.683138 58.1196739C37.422623 58.9953604 35.968349 59.9275601 34.295018 59.9275601 31.44352 59.9275601 30.07267 58.0626225 30.07267 55.1567644L30.07267 45.3945023 33.473692 45.3945023 33.473692 54.6632153C33.473692 56.581975 34.075424 57.1863978 35.227218 57.1863978 36.70948 57.1863978 37.83221 56.3354696 38.409183 55.6766864L38.409183 45.3945023 41.809129 45.3945023zM21.106438 45.3945023L21.106438 40.6780671 24.505845 40.6780671 24.505845 45.3945023 27.302444 45.3945023 27.302444 48.1362028 24.505845 48.1362028 24.505845 56.1971466C24.505845 56.9668034 24.889597 57.1863978 25.739987 57.1863978 26.261523 57.1863978 26.809433 57.021702 27.302444 56.9102902L27.302444 59.7085039C26.370244 59.8193775 25.548918 59.9275601 24.61618 59.9275601 22.092998 59.9275601 21.106438 58.6670452 21.106438 56.6363354L21.106438 48.1362028 19.131165 48.1362028 19.131165 45.3945023 21.106438 45.3945023zM14.0304392 45.1205476C13.4540039 43.5850016 12.2752988 42.5435429 10.4921708 42.5435429 8.8473658 42.5435429 7.6686607 43.2007114 7.6686607 44.7367956 7.6686607 48.1362028 17.869573 47.4235975 17.869573 53.8402746 17.869573 57.9000796 15.3184033 59.9275601 10.9318978 59.9275601 7.6966482 59.9275601 4.651929 58.1196739 3.5281225 55.2391123L6.6535749 53.8677239C7.5588635 55.7326615 8.7375686 56.9668034 10.9593471 56.9668034 12.8511958 56.9668034 14.3043939 56.2531217 14.3043939 54.3338237 14.3043939 50.4403292 4.1018666 51.2078331 4.1018666 45.1205476 4.1018666 41.5828175 7.0653144 39.5817098 10.4921708 39.5817098 13.6730601 39.5817098 16.307116 41.171078 17.485283 44.0516396L14.0304392 45.1205476zM85.0409228 35.6536053L87.0151193 35.6536053 87.0151193 15.8556646 85.0409228 15.8556646 85.0409228 35.6536053zM78.211968 27.9484259C73.6876778 28.7433791 71.467514 30.0587925 71.467514 32.0335273 71.467514 33.3500172 72.7285671 34.2283947 73.8254626 34.2283947 75.2506732 34.2283947 77.0607122 33.1863978 78.211968 31.8693697L78.211968 27.9484259zM69.9034423 24.1362028C70.8092691 22.4908596 72.5622566 21.1205476 75.2506732 21.1205476 77.6640585 21.1205476 80.1861646 22.2718034 80.1861646 25.3983323L80.1861646 32.581975C80.1861646 34.146585 80.3228729 34.9135507 80.5150179 35.6536053L78.4869992 35.6536053 78.2674048 33.6804852C77.2792301 34.775766 75.6893237 35.9275601 73.5509696 35.9275601 71.3571786 35.9275601 69.4917028 34.6132231 69.4917028 32.006078 69.4917028 28.8806256 71.8771006 27.3181685 78.211968 26.1943619L78.211968 25.4257816C78.211968 23.5333947 76.9772878 22.8202512 75.2775842 22.8202512 73.0848697 22.8202512 72.0154236 24.0818424 71.6305952 25.0420296L69.9034423 24.1362028zM60.9630445 21.3945023L62.9377793 21.3945023 62.9377793 24.2185507 62.9932161 24.2185507C64.0901115 22.2718034 65.2688167 21.174908 67.6267652 21.174908L67.6267652 23.1496427C65.1584813 23.2040031 63.8694407 24.8224353 62.9377793 27.7562808L62.9377793 35.6536053 60.9630445 35.6536053 60.9630445 21.3945023zM55.5345421 27.2078331C55.5345421 24.5759298 54.2729509 22.8202512 52.1340585 22.8202512 49.747046 22.8202512 48.4596201 24.5759298 48.2949243 27.2078331L55.5345421 27.2078331zM57.9463128 32.6094243C57.0141131 34.2283947 55.6981615 35.9275601 52.4629119 35.9275601 49.2814844 35.9275601 46.2647527 33.7348456 46.2647527 28.5243229 46.2647527 23.9166084 48.5688791 21.1205476 52.0786217 21.1205476 55.0393783 21.1205476 57.5076622 23.0403838 57.5076622 27.5921232L57.5076622 28.9086131 48.2400257 28.9086131C48.2400257 32.0335273 50.1049633 34.2283947 52.4629119 34.2283947 54.217514 34.2283947 55.5883643 33.2956568 56.4118432 31.8139329L57.9463128 32.6094243zM40.6145031 24.794986C39.5466716 23.6157426 38.2021942 22.8202512 37.0240273 22.8202512 34.7199009 22.8202512 32.992748 24.3283479 32.992748 28.6330437 32.992748 32.2531217 34.5546669 34.2283947 37.0240273 34.2283947 38.2840039 34.2283947 39.2167418 33.6804852 40.6145031 32.3080203L40.6145031 24.794986zM42.5903144 15.8556646L42.5903144 32.5281529C42.5903144 33.5696115 42.5348775 34.6132231 42.6995733 35.6536053L40.8889961 35.6536053 40.6145031 34.2553058C39.9567964 35.1605944 38.5584969 35.9275601 36.8587933 35.9275601 34.3345343 35.9275601 31.0180133 34.2283947 31.0180133 28.5243229 31.0180133 22.9844087 34.3345343 21.1205476 36.7495343 21.1205476 38.0918588 21.1205476 39.4083487 21.8062418 40.5057824 22.710454L40.6145031 22.766429 40.6145031 15.8556646 42.5903144 15.8556646zM25.6438713 27.2078331C25.6438713 24.5759298 24.3828183 22.8202512 22.2433877 22.8202512 19.8569134 22.8202512 18.5684111 24.5759298 18.4031771 27.2078331L25.6438713 27.2078331zM28.055642 32.6094243C27.1234423 34.2283947 25.8080289 35.9275601 22.5717028 35.9275601 19.3908136 35.9275601 16.3740819 33.7348456 16.3740819 28.5243229 16.3740819 23.9166084 18.6782083 21.1205476 22.1874126 21.1205476 25.1497839 21.1205476 27.615915 23.0403838 27.615915 27.5921232L27.615915 28.9086131 18.3488167 28.9086131C18.3488167 32.0335273 20.2137543 34.2283947 22.5717028 34.2283947 24.326305 34.2283947 25.6976934 33.2956568 26.5211724 31.8139329L28.055642 32.6094243zM16.6480367 15.8556646L16.6480367 17.7206022 7.10536895 17.7206022 7.10536895 24.3563354 14.180291 24.3563354 14.180291 26.221273 7.10536895 26.221273 7.10536895 35.6536053 4.91050156 35.6536053 4.91050156 15.8556646 16.6480367 15.8556646z"/>
  </g>
</svg>

<svg xmlns="http://www.w3.org/2000/svg" viewBox="0 0 100 100"><g fill="#FFF" fill-rule="nonzero" style="mix-blend-mode:difference"><path d="M36.541 74.069c-.686-.63-1.536-1.206-2.633-1.206-2.028 0-3.18 1.645-3.18 4.66 0 3.017 1.152 4.664 3.18 4.664 1.454 0 1.92-.713 2.633-1.263v-6.855Zm3.4 10.584h-2.878l-.165-1.534c-1.207 1.178-2.331 1.808-3.868 1.808-3.783 0-5.703-3.344-5.703-7.787 0-3.509 2.03-7.02 5.703-7.02 1.153 0 2.771.686 3.456 1.591h.055v-6.855h3.4v19.797Zm-19.14 0h3.4V70.395h-3.4v14.258Zm0-16.89h3.4v-3.181h-3.4v3.18ZM8.05 77.25h4.608l-2.222-8.61h-.055l-2.33 8.61Zm-.053-12.422h4.716l5.62 19.825h-3.757l-1.096-4.277H7.226l-1.178 4.277H2.291l5.705-19.825ZM91.035 45.395v-4.717h3.4v4.717h2.797v2.741h-2.798v8.061c0 .77.385.99 1.234.99.522 0 1.07-.165 1.564-.277v2.799c-.933.11-1.755.219-2.687.219-2.523 0-3.51-1.261-3.51-3.292v-8.5H89.06v-2.741h1.975zM74.91 59.654v-14.26h3.127v1.537c1.26-.878 2.714-1.81 4.386-1.81 2.852 0 4.223 1.863 4.223 4.77v9.763h-3.4v-9.269c0-1.919-.604-2.523-1.755-2.523-1.482 0-2.605.85-3.18 1.509v10.283H74.91zm-6.115-8.884c-.056-1.975-1.097-3.127-2.742-3.127-1.646 0-2.689 1.152-2.744 3.127h5.486zm-5.486 2.303c.055 2.96 1.372 4.113 2.963 4.113 1.59 0 2.33-.712 3.18-1.701l2.468 1.537c-1.317 2.03-3.236 2.906-5.978 2.906-3.701 0-6.031-2.88-6.031-7.404 0-4.525 2.33-7.403 6.196-7.403 3.73-.028 5.813 3.125 5.813 6.553v1.399h-8.61zm-9.543-4.004c-.685-.63-1.535-1.207-2.633-1.207-2.029 0-3.179 1.647-3.179 4.662 0 3.017 1.15 4.662 3.18 4.662 1.452 0 1.919-.712 2.632-1.263V49.07zm3.4 10.585h-2.879l-.165-1.534c-1.206 1.177-2.33 1.808-3.868 1.808-3.783 0-5.702-3.346-5.702-7.788 0-3.509 2.03-7.02 5.702-7.02 1.153 0 2.771.686 3.457 1.59h.055v-6.854h3.4v19.798zM41.81 45.394v14.26h-3.126V58.12c-1.26.875-2.715 1.808-4.388 1.808-2.851 0-4.222-1.865-4.222-4.771v-9.762h3.4v9.268c0 1.919.602 2.523 1.754 2.523 1.482 0 2.605-.85 3.182-1.51V45.396h3.4zm-20.703 0v-4.716h3.4v4.717h2.796v2.741h-2.796v8.061c0 .77.384.99 1.234.99.522 0 1.07-.165 1.562-.277v2.799c-.932.11-1.753.219-2.686.219-2.523 0-3.51-1.261-3.51-3.292v-8.5h-1.975v-2.741h1.975zm-7.076-.273c-.576-1.536-1.755-2.577-3.538-2.577-1.645 0-2.823.657-2.823 2.193 0 3.4 10.2 2.687 10.2 9.103 0 4.06-2.55 6.088-6.937 6.088-3.235 0-6.28-1.808-7.404-4.689l3.126-1.371c.905 1.865 2.084 3.099 4.305 3.099 1.892 0 3.345-.714 3.345-2.633 0-3.894-10.202-3.126-10.202-9.213 0-3.538 2.963-5.54 6.39-5.54 3.181 0 5.815 1.59 6.993 4.47l-3.455 1.07zm71.01-9.467h1.975V15.856h-1.974v19.798zm-6.828-7.706c-4.524.795-6.744 2.11-6.744 4.086 0 1.316 1.26 2.194 2.357 2.194 1.426 0 3.236-1.042 4.387-2.359v-3.92zm-8.309-3.812c.906-1.645 2.66-3.015 5.348-3.015 2.413 0 4.935 1.15 4.935 4.277v7.184c0 1.565.137 2.332.329 3.072h-2.028l-.22-1.974c-.988 1.096-2.578 2.248-4.716 2.248-2.194 0-4.06-1.315-4.06-3.922 0-3.125 2.386-4.688 8.721-5.812v-.768c0-1.893-1.235-2.606-2.934-2.606-2.193 0-3.263 1.262-3.647 2.222l-1.728-.906zm-8.94-2.741h1.975v2.824h.055c1.097-1.947 2.276-3.044 4.634-3.044v1.975c-2.469.054-3.758 1.672-4.69 4.606v7.898h-1.974v-14.26zm-5.428 5.813c0-2.632-1.262-4.388-3.4-4.388-2.388 0-3.675 1.756-3.84 4.388h7.24zm2.411 5.401c-.932 1.62-2.248 3.319-5.483 3.319-3.182 0-6.198-2.193-6.198-7.404 0-4.607 2.304-7.403 5.814-7.403 2.96 0 5.429 1.92 5.429 6.471v1.317H48.24c0 3.125 1.865 5.32 4.223 5.32 1.755 0 3.125-.933 3.949-2.415l1.534.795zm-17.331-7.814c-1.068-1.18-2.413-1.975-3.591-1.975-2.304 0-4.031 1.508-4.031 5.813 0 3.62 1.562 5.595 4.031 5.595 1.26 0 2.193-.548 3.59-1.92v-7.513zm1.975-8.94v16.673c0 1.042-.055 2.085.11 3.126h-1.811l-.274-1.399c-.658.906-2.057 1.673-3.756 1.673-2.524 0-5.841-1.7-5.841-7.404 0-5.54 3.317-7.403 5.732-7.403 1.342 0 2.658.685 3.756 1.59l.109.055v-6.91h1.975zM25.644 27.209c0-2.632-1.261-4.388-3.4-4.388-2.387 0-3.676 1.756-3.84 4.388h7.24zm2.412 5.401c-.933 1.62-2.248 3.319-5.484 3.319-3.181 0-6.198-2.193-6.198-7.404 0-4.607 2.304-7.403 5.813-7.403 2.963 0 5.429 1.92 5.429 6.471v1.317h-9.267c0 3.125 1.865 5.32 4.223 5.32 1.754 0 3.126-.933 3.95-2.415l1.534.795zM16.648 15.856v1.865H7.105v6.635h7.075v1.865H7.105v9.433H4.911V15.856h11.737z"/></g></svg>
